img/donate-cashapp.svg

<svg height="100" viewBox="0 0 300 100" width="300" xmlns="http://www.w3.org/2000/svg"><path d="m120.084399 43.0690909c-.541186.3332476-1.249649.1972872-1.626598-.3121591-1.829259-2.5947753-4.851011-4.1026171-8.040921-4.0123863-6.138108 0-9.913044 4.8194318-9.913044 11.702159 0 6.8827273 3.836317 11.7935228 9.974425 11.7935228 3.242723.0738962 6.294328-1.5178921 8.071611-4.2103409.364572-.5176831 1.067395-.6730322 1.618926-.3578409l2.907928 1.675c.301027.1735095.5143.465006.587342.8027645.073042.3377586-.000928.6904212-.20371.9712127-2.897502 4.309536-7.824748 6.837622-13.043478 6.6923864-9.767264 0-16.4194375-7.0654546-16.4194375-17.3667046s6.6521735-17.2753409 16.3196935-17.2753409c5.125873-.1412399 9.988798 2.2487104 12.982097 6.3802273.204492.2757621.284272.6234621.220248.9598916-.064024.3364296-.266091.6313145-.557844.8140857zm21.483376 22.9170455v-1.4009091c-1.534527 1.9643182-3.682865 3.1825-7.127877 3.1825-5.094629 0-8.631714-2.76375-8.631714-7.6136364 0-6.0376136 5.424553-7.0730682 8.777494-7.5375 3.58312-.5177273 6.652174-.7613636 6.652174-3.0911364 0-2.0632954-2.409207-2.6190909-4.442456-2.6190909-2.331367.0393992-4.621679.6153933-6.690537 1.6826137-.291631.1586736-.635906.1923155-.953126.093138-.31722-.0991776-.579882-.3225757-.727181-.6184789l-1.074168-2.1622728c-.296097-.5856164-.072366-1.2987412.506393-1.6140909 2.892824-1.5408935 6.123413-2.3514822 9.40665-2.3602272 5.846547 0 9.974425 2.3830681 9.974425 8.1465909v15.9125c0 .6727832-.549625 1.2181818-1.227622 1.2181818h-3.222506c-.674999-.0041864-1.219962-.5483607-1.219949-1.2181818zm-.329923-11.0017046c-1.13555.8451137-3.214834 1.1268182-5.432225 1.5227273-2.217392.3959091-4.051151.9821591-4.051151 3.3728409 0 2.2003409 1.60358 3.2281818 3.913043 3.2281818 2.877238 0 5.570333-1.59125 5.570333-5.2914773zm11.30179 5.9157955c.430688-.5017814 1.185457-.5726295 1.703325-.1598864 2.048091 1.5378006 4.560232 2.3428031 7.127877 2.2840909 2.647059 0 4.603581-.8451136 4.603581-2.9007954 0-1.8729546-1.795397-2.2840909-6.138108-2.9997728-4.60358-.7613636-9.015345-2.2840909-9.015345-7.4918181 0-5.4285228 4.71867-7.7202273 10.097187-7.7202273 3.37303-.0506365 6.665913 1.0215742 9.352941 3.0454545.266891.2046782.436471.5098743.468451.8430799s-.076495.6646795-.299653.9156701l-1.534527 1.7892046c-.422419.4982337-1.163674.5818194-1.68798.1903409-1.873696-1.3677606-4.141996-2.0993561-6.46803-2.0861364-2.301791 0-4.242967.6547727-4.242967 2.42875 0 1.9719318 2.785166 2.345 5.570332 2.8094318 5.938619 1.0354546 9.713555 2.7180682 9.713555 7.6136364 0 5.1544318-4.150895 8.3369318-10.741688 8.3369318-3.603393.1089788-7.131782-1.0356633-9.974424-3.2357954-.257269-.2081042-.419319-.5101891-.449629-.8381771-.030311-.327988.073668-.6542809.288503-.9053457zm22.849105 5.0859091v-30.9875c0-.6727833.549625-1.2181819 1.227621-1.2181819h3.537085c.325585 0 .637835.1283438.868059.3567972s.359562.5383028.359562.8613847v10.5753409c1.783461-2.3692905 4.616873-3.7296625 7.595908-3.6469318 5.240409 0 8.30179 3.7002272 8.30179 8.9840909v15.075c0 .6727832-.549624 1.2181818-1.227621 1.2181818h-3.537085c-.677996 0-1.227621-.5453986-1.227621-1.2181818v-13.7045455c0-2.6267045-.84399-5.0097727-4.242967-5.0097727-3.207161 0-5.662404 2.2460227-5.662404 5.9919318v12.7223864c0 .6727832-.549625 1.2181818-1.227621 1.2181818h-3.537085c-.677996 0-1.227621-.5453986-1.227621-1.2181818zm60.813299.3882954-2.56266-7.45375h-12.859335l-2.547314 7.45375c-.168357.4967814-.638061.8310187-1.166241.8298864h-4.143222c-.402537.0002997-.779647-.1952461-1.009253-.5233357-.229605-.3280896-.282531-.7470327-.141642-1.1212098l11.585677-30.9875c.189327-.4645092.645977-.7666013 1.150895-.7613636h5.700768c.504918-.0052377.961568.2968544 1.150895.7613636l11.547314 30.9951137c.137704.3732863.083205.7897638-.146005 1.1157727-.229211.3260089-.6043.5205387-1.00489.5211591h-4.388747c-.528179.0011323-.997883-.333105-1.16624-.8298864zm-8.915601-27.1654545-4.948849 14.5192045h9.713555zm24.491049 4.4996591v1.9186363c1.767692-2.4353325 4.650737-3.8257181 7.672634-3.7002272 6.797954 0 11.186701 5.5731818 11.186701 12.874659 0 7.3014773-4.388747 12.9431819-11.186701 12.9431819-3.030172.1137123-5.914339-1.2943865-7.672634-3.7459091v10.13375c0 .6727832-.549625 1.2181818-1.227622 1.2181818h-3.537084c-.677997 0-1.227622-.5453986-1.227622-1.2181818v-30.4545455c0-.6727832.549625-1.2181818 1.227622-1.2181818h3.506394c.336263-.0084516.661293.1203849.899143.3564066.237851.2360218.367686.5585516.359169.8922298zm6.414322 18.8589772c4.150895 0 6.184143-3.5098863 6.184143-7.7659091 0-4.2560227-2.033248-7.682159-6.184143-7.682159s-6.414322 3.4185227-6.414322 7.682159c0 4.2636364 2.217391 7.7659091 6.414322 7.7659091zm22.127877-18.8589772v1.9186363c1.770453-2.4320754 4.651613-3.8215523 7.672634-3.7002272 6.790282 0 11.179028 5.5731818 11.179028 12.874659 0 7.3014773-4.388746 12.9431819-11.179028 12.9431819-3.029273.1095346-5.91155-1.2976415-7.672634-3.7459091v10.13375c0 .6727832-.549625 1.2181818-1.227621 1.2181818h-3.529412c-.677997 0-1.227622-.5453986-1.227622-1.2181818v-30.4545455c-.002058-.3237037.126619-.6347411.357291-.8636387.230671-.2288976.544119-.3565855.870331-.3545431h3.529412c.331637-.0022328.649898.1296114.881494.3651717s.356564.5545326.346127.8834647zm6.421995 18.8589772c4.150895 0 6.138107-3.5098863 6.138107-7.7659091 0-4.2560227-2.025575-7.682159-6.138107-7.682159s-6.421995 3.4185227-6.421995 7.682159c0 4.2636364 2.225064 7.7659091 6.421995 7.7659091zm-243.5217392-44.9585227c6.6905371 0 9.9820972 0 13.595908 1.1268182 3.9261973 1.4107708 7.0181948 4.4789927 8.4398977 8.375 1.1355498 3.5555682 1.1355498 6.8522727 1.1355498 13.4609091v19.8868182c0 6.6010227 0 9.8977272-1.1355498 13.4609091-1.4217029 3.8960072-4.5137004 6.9642291-8.4398977 8.375-3.5831202 1.1268181-6.9053709 1.1268181-13.5652174 1.1268181h-20.1023018c-6.6521739 0-9.9744246 0-13.5652174-1.1268181-3.92619735-1.4107709-7.01819483-4.4789928-8.43989769-8.375-1.10485934-3.5555682-1.10485934-6.8218182-1.10485934-13.4609091v-19.9172728c0-6.6010227 0-9.8977272 1.13554987-13.4609091 1.42170287-3.8960072 4.51370035-6.9642291 8.4398977-8.375 3.55242966-1.0963636 6.88235296-1.0963636 13.53452686-1.0963636zm-8.347826 21.5694318c3.2595052.0050516 6.4121677 1.1539371 8.9002557 3.2434091.5334285.4796563 1.3513566.4629559 1.8644501-.0380682l2.5626599-2.5505681c.2596444-.2558364.3998295-.6076424.3867179-.9704997-.0131116-.3628572-.1783288-.7037967-.4557716-.9405231-2.0126831-1.6989992-4.3400323-2.9920861-6.8516624-3.8068182l.7672634-3.7535227c.0808477-.3906754-.0199771-.7967046-.2744868-1.1053802-.2545098-.3086756-.6356175-.4871457-1.0375337-.4858698h-4.9335038c-.6297217-.0006267-1.1752811.433098-1.3120205 1.0430682l-.690537 3.3576136c-6.567775.3197728-12.1381075 3.5479546-12.1381075 10.1642046 0 5.7178409 4.6035806 8.1770454 9.4680307 9.8977273 4.6035806 1.6978409 7.0434783 2.3297727 7.0434783 4.7204545s-2.4322251 3.8981818-6.0153453 3.8981818c-3.4772603.0550247-6.8367839-1.249463-9.3529411-3.6317045-.5194938-.506921-1.352629-.506921-1.8721228 0l-2.7468031 2.6647727c-.2592781.2482324-.4057309.590386-.4057309.9478977s.1464528.6996653.4057309.9478978c2.2380928 2.0801296 4.9697662 3.5651045 7.9411765 4.3169318l-.7672634 3.4794318c-.0805765.3893689.0192961.7940637.2720629 1.1024287.2527669.308365.6317123.4878083 1.0322849.4888213h4.9488491c.634909.0034403 1.1854627-.4348865 1.3196931-1.0506818l.713555-3.2586364c7.8721227-.4796591 12.6828644-4.6823864 12.6828644-10.8342045 0-5.6645455-4.7953964-8.0552273-10.6189258-10.0043182-3.3299233-1.2410227-6.2071611-2.0556818-6.2071611-4.5072727 0-2.451591 2.685422-3.3347728 5.370844-3.3347728z"/></svg>

<svg xmlns="http://www.w3.org/2000/svg" width="300" height="100" viewBox="0 0 300 100" role="img">
  <path d="M120.084399,43.0690909 C119.543213,43.4023385 118.83475,43.2663781 118.457801,42.7569318 C116.628542,40.1621565 113.60679,38.6543147 110.41688,38.7445455 C104.278772,38.7445455 100.503836,43.5639773 100.503836,50.4467045 C100.503836,57.3294318 104.340153,62.2402273 110.478261,62.2402273 C113.720984,62.3141235 116.772589,60.7223352 118.549872,58.0298864 C118.914444,57.5122033 119.617267,57.3568542 120.168798,57.6720455 L123.076726,59.3470455 C123.377753,59.520555 123.591026,59.8120515 123.664068,60.14981 C123.73711,60.4875686 123.66314,60.8402312 123.460358,61.1210227 C120.562856,65.4305587 115.63561,67.9586447 110.41688,67.8134091 C100.649616,67.8134091 93.9974425,60.7479545 93.9974425,50.4467045 C93.9974425,40.1454545 100.649616,33.1713636 110.317136,33.1713636 C115.443009,33.0301237 120.305934,35.420074 123.299233,39.5515909 C123.503725,39.827353 123.583505,40.175053 123.519481,40.5114825 C123.455457,40.8479121 123.25339,41.142797 122.961637,41.3255682 L120.084399,43.0690909 Z M141.567775,65.9861364 L141.567775,64.5852273 C140.033248,66.5495455 137.88491,67.7677273 134.439898,67.7677273 C129.345269,67.7677273 125.808184,65.0039773 125.808184,60.1540909 C125.808184,54.1164773 131.232737,53.0810227 134.585678,52.6165909 C138.168798,52.0988636 141.237852,51.8552273 141.237852,49.5254545 C141.237852,47.4621591 138.828645,46.9063636 136.795396,46.9063636 C134.464029,46.9457628 132.173717,47.5217569 130.104859,48.5889773 C129.813228,48.7476509 129.468953,48.7812928 129.151733,48.6821153 C128.834513,48.5829377 128.571851,48.3595396 128.424552,48.0636364 L127.350384,45.9013636 C127.054287,45.3157472 127.278018,44.6026224 127.856777,44.2872727 C130.749601,42.7463792 133.98019,41.9357905 137.263427,41.9270455 C143.109974,41.9270455 147.237852,44.3101136 147.237852,50.0736364 L147.237852,65.9861364 C147.237852,66.6589196 146.688227,67.2043182 146.01023,67.2043182 L142.787724,67.2043182 C142.112725,67.2001318 141.567762,66.6559575 141.567775,65.9861364 Z M141.237852,54.9844318 C140.102302,55.8295455 138.023018,56.11125 135.805627,56.5071591 C133.588235,56.9030682 131.754476,57.4893182 131.754476,59.88 C131.754476,62.0803409 133.358056,63.1081818 135.667519,63.1081818 C138.544757,63.1081818 141.237852,61.5169318 141.237852,57.8167045 L141.237852,54.9844318 Z M152.539642,60.9002273 C152.97033,60.3984459 153.725099,60.3275978 154.242967,60.7403409 C156.291058,62.2781415 158.803199,63.083144 161.370844,63.0244318 C164.017903,63.0244318 165.974425,62.1793182 165.974425,60.1236364 C165.974425,58.2506818 164.179028,57.8395455 159.836317,57.1238636 C155.232737,56.3625 150.820972,54.8397727 150.820972,49.6320455 C150.820972,44.2035227 155.539642,41.9118182 160.918159,41.9118182 C164.291189,41.8611817 167.584072,42.9333924 170.2711,44.9572727 C170.537991,45.1619509 170.707571,45.467147 170.739551,45.8003526 C170.771531,46.1335582 170.663056,46.4650321 170.439898,46.7160227 L168.905371,48.5052273 C168.482952,49.003461 167.741697,49.0870467 167.217391,48.6955682 C165.343695,47.3278076 163.075395,46.5962121 160.749361,46.6094318 C158.44757,46.6094318 156.506394,47.2642045 156.506394,49.0381818 C156.506394,51.0101136 159.29156,51.3831818 162.076726,51.8476136 C168.015345,52.8830682 171.790281,54.5656818 171.790281,59.46125 C171.790281,64.6156818 167.639386,67.7981818 161.048593,67.7981818 C157.4452,67.9071606 153.916811,66.7625185 151.074169,64.5623864 C150.8169,64.3542822 150.65485,64.0521973 150.62454,63.7242093 C150.594229,63.3962213 150.698208,63.0699284 150.913043,62.8188636 L152.539642,60.9002273 Z M175.388747,65.9861364 L175.388747,34.9986364 C175.388747,34.3258531 175.938372,33.7804545 176.616368,33.7804545 L180.153453,33.7804545 C180.479038,33.7804545 180.791288,33.9087983 181.021512,34.1372517 C181.251736,34.3657051 181.381074,34.6755545 181.381074,34.9986364 L181.381074,45.5739773 C183.164535,43.2046868 185.997947,41.8443148 188.976982,41.9270455 C194.217391,41.9270455 197.278772,45.6272727 197.278772,50.9111364 L197.278772,65.9861364 C197.278772,66.6589196 196.729148,67.2043182 196.051151,67.2043182 L192.514066,67.2043182 C191.83607,67.2043182 191.286445,66.6589196 191.286445,65.9861364 L191.286445,52.2815909 C191.286445,49.6548864 190.442455,47.2718182 187.043478,47.2718182 C183.836317,47.2718182 181.381074,49.5178409 181.381074,53.26375 L181.381074,65.9861364 C181.381074,66.6589196 180.831449,67.2043182 180.153453,67.2043182 L176.616368,67.2043182 C175.938372,67.2043182 175.388747,66.6589196 175.388747,65.9861364 Z M236.202046,66.3744318 L233.639386,58.9206818 L220.780051,58.9206818 L218.232737,66.3744318 C218.06438,66.8712132 217.594676,67.2054505 217.066496,67.2043182 L212.923274,67.2043182 C212.520737,67.2046179 212.143627,67.0090721 211.914021,66.6809825 C211.684416,66.3528929 211.63149,65.9339498 211.772379,65.5597727 L223.358056,34.5722727 C223.547383,34.1077635 224.004033,33.8056714 224.508951,33.8109091 L230.209719,33.8109091 C230.714637,33.8056714 231.171287,34.1077635 231.360614,34.5722727 L242.907928,65.5673864 C243.045632,65.9406727 242.991133,66.3571502 242.761923,66.6831591 C242.532712,67.009168 242.157623,67.2036978 241.757033,67.2043182 L237.368286,67.2043182 C236.840107,67.2054505 236.370403,66.8712132 236.202046,66.3744318 Z M227.286445,39.2089773 L222.337596,53.7281818 L232.051151,53.7281818 L227.286445,39.2089773 Z M251.777494,43.7086364 L251.777494,45.6272727 C253.545186,43.1919402 256.428231,41.8015546 259.450128,41.9270455 C266.248082,41.9270455 270.636829,47.5002273 270.636829,54.8017045 C270.636829,62.1031818 266.248082,67.7448864 259.450128,67.7448864 C256.419956,67.8585987 253.535789,66.4504999 251.777494,63.9989773 L251.777494,74.1327273 C251.777494,74.8055105 251.227869,75.3509091 250.549872,75.3509091 L247.012788,75.3509091 C246.334791,75.3509091 245.785166,74.8055105 245.785166,74.1327273 L245.785166,43.6781818 C245.785166,43.0053986 246.334791,42.46 247.012788,42.46 L250.519182,42.46 C250.855445,42.4515484 251.180475,42.5803849 251.418325,42.8164066 C251.656176,43.0524284 251.786011,43.3749582 251.777494,43.7086364 Z M258.191816,62.5676136 C262.342711,62.5676136 264.375959,59.0577273 264.375959,54.8017045 C264.375959,50.5456818 262.342711,47.1195455 258.191816,47.1195455 C254.040921,47.1195455 251.777494,50.5380682 251.777494,54.8017045 C251.777494,59.0653409 253.994885,62.5676136 258.191816,62.5676136 Z M280.319693,43.7086364 L280.319693,45.6272727 C282.090146,43.1951973 284.971306,41.8057204 287.992327,41.9270455 C294.782609,41.9270455 299.171355,47.5002273 299.171355,54.8017045 C299.171355,62.1031818 294.782609,67.7448864 287.992327,67.7448864 C284.963054,67.854421 282.080777,66.4472449 280.319693,63.9989773 L280.319693,74.1327273 C280.319693,74.8055105 279.770068,75.3509091 279.092072,75.3509091 L275.56266,75.3509091 C274.884663,75.3509091 274.335038,74.8055105 274.335038,74.1327273 L274.335038,43.6781818 C274.33298,43.3544781 274.461657,43.0434407 274.692329,42.8145431 C274.923,42.5856455 275.236448,42.4579576 275.56266,42.46 L279.092072,42.46 C279.423709,42.4577672 279.74197,42.5896114 279.973566,42.8251717 C280.205162,43.060732 280.33013,43.3797043 280.319693,43.7086364 Z M286.741688,62.5676136 C290.892583,62.5676136 292.879795,59.0577273 292.879795,54.8017045 C292.879795,50.5456818 290.85422,47.1195455 286.741688,47.1195455 C282.629156,47.1195455 280.319693,50.5380682 280.319693,54.8017045 C280.319693,59.0653409 282.544757,62.5676136 286.741688,62.5676136 Z M43.2199488,17.6090909 C49.9104859,17.6090909 53.202046,17.6090909 56.8158568,18.7359091 C60.7420541,20.1466799 63.8340516,23.2149018 65.2557545,27.1109091 C66.3913043,30.6664773 66.3913043,33.9631818 66.3913043,40.5718182 L66.3913043,60.4586364 C66.3913043,67.0596591 66.3913043,70.3563636 65.2557545,73.9195455 C63.8340516,77.8155527 60.7420541,80.8837746 56.8158568,82.2945455 C53.2327366,83.4213636 49.9104859,83.4213636 43.2506394,83.4213636 L23.1483376,83.4213636 C16.4961637,83.4213636 13.173913,83.4213636 9.5831202,82.2945455 C5.65692285,80.8837746 2.56492537,77.8155527 1.14322251,73.9195455 C0.0383631714,70.3639773 0.0383631714,67.0977273 0.0383631714,60.4586364 L0.0383631714,40.5413636 C0.0383631714,33.9403409 0.0383631714,30.6436364 1.17391304,27.0804545 C2.59561591,23.1844473 5.68761339,20.1162254 9.61381074,18.7054545 C13.1662404,17.6090909 16.4961637,17.6090909 23.1483376,17.6090909 L43.2199488,17.6090909 Z M34.8721228,39.1785227 C38.131628,39.1835743 41.2842905,40.3324598 43.7723785,42.4219318 C44.305807,42.9015881 45.1237351,42.8848877 45.6368286,42.3838636 L48.1994885,39.8332955 C48.4591329,39.5774591 48.599318,39.2256531 48.5862064,38.8627958 C48.5730948,38.4999386 48.4078776,38.1589991 48.1304348,37.9222727 C46.1177517,36.2232735 43.7904025,34.9301866 41.2787724,34.1154545 L42.0460358,30.3619318 C42.1268835,29.9712564 42.0260587,29.5652272 41.771549,29.2565516 C41.5170392,28.947876 41.1359315,28.7694059 40.7340153,28.7706818 L35.8005115,28.7706818 C35.1707898,28.7700551 34.6252304,29.2037798 34.488491,29.81375 L33.797954,33.1713636 C27.230179,33.4911364 21.6598465,36.7193182 21.6598465,43.3355682 C21.6598465,49.0534091 26.2634271,51.5126136 31.1278772,53.2332955 C35.7314578,54.9311364 38.1713555,55.5630682 38.1713555,57.95375 C38.1713555,60.3444318 35.7391304,61.8519318 32.1560102,61.8519318 C28.6787499,61.9069565 25.3192263,60.6024688 22.8030691,58.2202273 C22.2835753,57.7133063 21.4504401,57.7133063 20.9309463,58.2202273 L18.1841432,60.885 C17.9248651,61.1332324 17.7784123,61.475386 17.7784123,61.8328977 C17.7784123,62.1904094 17.9248651,62.532563 18.1841432,62.7807955 C20.422236,64.8609251 23.1539094,66.3459 26.1253197,67.0977273 L25.3580563,70.5771591 C25.2774798,70.966528 25.3773524,71.3712228 25.6301192,71.6795878 C25.8828861,71.9879528 26.2618315,72.1673961 26.6624041,72.1684091 L31.6112532,72.1684091 C32.2461622,72.1718494 32.7967159,71.7335226 32.9309463,71.1177273 L33.6445013,67.8590909 C41.516624,67.3794318 46.3273657,63.1767045 46.3273657,57.0248864 C46.3273657,51.3603409 41.5319693,48.9696591 35.7084399,47.0205682 C32.3785166,45.7795455 29.5012788,44.9648864 29.5012788,42.5132955 C29.5012788,40.0617045 32.1867008,39.1785227 34.8721228,39.1785227 Z"/>
</svg>
